X:1
T:Ye Jacobites by Name
M:4/4
L:1/8
K:C
 E2| A3/2 B/2 AG E2 EE| c2 BA B3 G| A3/2 B/2 AG E2 E3/2 ^G/2| A6A-B|\
 c3/2 d/2 ef g3f/2-e/2| dc BA G2c-d| eA BA E3/2- D/2 E^G| A6||
